lib/flags/ph-philippines.svg

<svg xmlns="http://www.w3.org/2000/svg" fill="none" aria-hidden="true" viewBox="0 0 42 30"><g id="Country=PH - Philippines, Size=sm (36x24)" filter="url(#filter0_dd_91_25863)"><g clip-path="url(#clip0_91_25863)"><g id="flag"><mask id="mask0_91_25863" width="36" height="24" x="3" y="2" maskUnits="userSpaceOnUse" style="mask-type:alpha"><rect id="mask" width="36" height="24" x="3" y="2" fill="white"/></mask><g mask="url(#mask0_91_25863)"><g id="contents"><path id="background" fill="#BF2714" fill-rule="evenodd" d="M3 2V26H39V2H3Z" clip-rule="evenodd"/><g id="Object"><mask id="mask1_91_25863" width="36" height="24" x="3" y="2" maskUnits="userSpaceOnUse" style="mask-type:alpha"><path id="background_2" fill="white" fill-rule="evenodd" d="M3 2V26H39V2H3Z" clip-rule="evenodd"/></mask><g mask="url(#mask1_91_25863)"><path id="top" fill="#3D58DB" fill-rule="evenodd" d="M3 0V14H39V0H3Z" clip-rule="evenodd"/></g></g><path id="triangle" fill="#F7FCFF" fill-rule="evenodd" d="M3 2V26L23.25 14L3 2Z" clip-rule="evenodd"/><mask id="mask2_91_25863" width="21" height="24" x="3" y="2" maskUnits="userSpaceOnUse" style="mask-type:alpha"><path id="triangle_2" fill="white" fill-rule="evenodd" d="M3 2V26L23.25 14L3 2Z" clip-rule="evenodd"/></mask><g mask="url(#mask2_91_25863)"><path id="Shape sp-1695-0" fill="#FECA00" fill-rule="evenodd" d="M18.3058 12.92L19.7412 13.412L20.5952 12.5187L20.6179 13.7135L21.9389 14.0954L20.5484 14.515L20.64 15.6129L19.7242 14.7718L18.2846 15.0152L19.1346 14.0466L18.3058 12.92Z" clip-rule="evenodd"/><path id="Shape sp-1695-0_2" fill="#FECA00" fill-rule="evenodd" d="M4.80585 18.92L6.12521 19.4385L7.09521 18.5187L7.00186 19.74L8.43891 20.0954L6.9324 20.5414L7.14004 21.6129L6.09114 20.8473L4.78463 21.0152L5.51855 20.0731L4.80585 18.92Z" clip-rule="evenodd"/><path id="Shape sp-1695-0_3" fill="#FECA00" fill-rule="evenodd" d="M4.80585 6.92001L6.26582 7.39823L7.09521 6.51871L7.14247 7.69967L8.43891 8.09541L7.07301 8.50116L7.14004 9.61286L6.23175 8.80699L4.78463 9.01524L5.65916 8.03278L4.80585 6.92001Z" clip-rule="evenodd"/><path id="Oval 43" fill="#FECA00" fill-rule="evenodd" d="M12.1367 16.5327C13.69 16.5327 14.9492 15.4134 14.9492 14.0327C14.9492 12.652 13.69 11.5327 12.1367 11.5327C10.5834 11.5327 9.32422 12.652 9.32422 14.0327C9.32422 15.4134 10.5834 16.5327 12.1367 16.5327Z" clip-rule="evenodd"/><path id="Combined Shape" fill="#FECA00" fill-rule="evenodd" d="M11.8041 10.2399L11.9553 11.8459C11.9697 11.9434 12.0541 12.0211 12.1633 12.0374C12.3004 12.0578 12.4301 11.9755 12.4531 11.8536L12.6525 10.2531C12.6561 10.2345 12.658 10.2156 12.6584 10.1968C12.6625 9.9862 12.4738 9.81252 12.2369 9.80885C12.2157 9.80852 12.1945 9.80959 12.1734 9.81205C11.9385 9.83955 11.7732 10.0311 11.8041 10.2399ZM11.3338 11.016L11.5674 11.7147C11.5891 11.7795 11.6619 11.8197 11.7443 11.8068C11.8119 11.7926 11.8537 11.7324 11.8377 11.6724L11.6513 10.9712C11.6299 10.8906 11.542 10.8384 11.45 10.8516C11.4438 10.8525 11.4378 10.8537 11.4318 10.8553C11.3548 10.8756 11.3109 10.9476 11.3338 11.016ZM12.597 11.7438C12.5787 11.8033 12.6181 11.8648 12.6924 11.8826C12.7669 11.8965 12.8413 11.8586 12.8655 11.7945L13.1264 11.1035C13.1519 11.0358 13.1109 10.9625 13.0348 10.9398C13.0289 10.9381 13.0228 10.9366 13.0167 10.9356C12.9253 10.9195 12.8354 10.9689 12.8108 11.0489L12.597 11.7438ZM14.9338 11.0417L13.6764 12.2759C13.609 12.3539 13.6069 12.4619 13.6711 12.542C13.7518 12.6426 13.909 12.666 14.0222 12.5942L15.5232 11.5842C15.5405 11.5733 15.5569 11.5612 15.5721 11.5481C15.7426 11.4018 15.7473 11.1604 15.5827 11.0089C15.568 10.9953 15.5521 10.9827 15.5353 10.9712C15.3473 10.843 15.078 10.8746 14.9338 11.0417ZM14.5512 13.6616L16.4288 13.5324C16.6637 13.5049 16.8792 13.6519 16.9101 13.8607C16.9129 13.8794 16.9141 13.8983 16.9137 13.9171C16.9096 14.1277 16.7142 14.2954 16.4773 14.2918C16.4561 14.2914 16.4349 14.2897 16.414 14.2866L14.5425 14.1041C14.4054 14.0837 14.3129 13.9684 14.3358 13.8465C14.3541 13.7495 14.4415 13.6744 14.5512 13.6616ZM15.5257 16.3198L14.0676 15.1914C13.9798 15.1315 13.8583 15.1296 13.7682 15.1867C13.655 15.2585 13.6287 15.3982 13.7094 15.4988L14.9153 16.8437C14.9277 16.8591 14.9412 16.8736 14.956 16.8872C15.1206 17.0387 15.3922 17.0429 15.5626 16.8966C15.5779 16.8835 15.592 16.8694 15.6049 16.8544C15.7492 16.6873 15.7137 16.448 15.5257 16.3198ZM12.5086 15.9691L12.6199 17.6541C12.6509 17.8629 12.4855 18.0544 12.2506 18.0819C12.2296 18.0844 12.2084 18.0855 12.1871 18.0851C11.9503 18.0815 11.7616 17.9078 11.7657 17.6972C11.7661 17.6784 11.768 17.6595 11.7715 17.6409L12.0108 15.9613C12.0338 15.8395 12.1635 15.7572 12.3006 15.7776C12.4098 15.7938 12.4942 15.8715 12.5086 15.9691ZM9.54866 16.8794L10.7876 15.5391C10.855 15.4611 10.8571 15.3531 10.7928 15.273C10.7121 15.1724 10.5549 15.149 10.4418 15.2208L8.95921 16.3368C8.94193 16.3478 8.92558 16.3599 8.91031 16.373C8.73988 16.5193 8.73514 16.7607 8.89972 16.9122C8.91447 16.9257 8.93033 16.9383 8.94717 16.9498C9.13515 17.078 9.40444 17.0465 9.54866 16.8794ZM9.9127 14.1534L8.02359 14.2918C7.7887 14.3193 7.5732 14.1723 7.54226 13.9635C7.53949 13.9448 7.53828 13.9259 7.53865 13.907C7.54279 13.6965 7.73818 13.5288 7.97506 13.5324C7.99629 13.5328 8.01746 13.5345 8.0384 13.5376L9.92139 13.7109C10.0585 13.7313 10.151 13.8466 10.1281 13.9685C10.1098 14.0655 10.0224 14.1405 9.9127 14.1534ZM8.79412 11.5223L10.3964 12.6236C10.4842 12.6835 10.6057 12.6854 10.6958 12.6282C10.8089 12.5565 10.8353 12.4168 10.7545 12.3162L9.40451 10.9983C9.39219 10.983 9.37859 10.9684 9.36384 10.9549C9.19926 10.8034 8.92768 10.7992 8.75725 10.9455C8.74198 10.9586 8.72783 10.9727 8.7149 10.9876C8.57068 11.1547 8.60615 11.3941 8.79412 11.5223ZM13.5064 11.9393L13.897 11.2984C13.9353 11.2357 14.0236 11.2123 14.0942 11.2464C14.0997 11.249 14.1049 11.2519 14.11 11.2552C14.1856 11.3037 14.2062 11.3958 14.1572 11.4663L13.7313 12.0793C13.6948 12.1317 13.6173 12.148 13.5583 12.1156C13.4897 12.0729 13.4702 11.9987 13.5064 11.9393ZM15.4848 13.1091L14.6988 13.3167C14.6259 13.336 14.5807 13.4008 14.5952 13.474C14.6112 13.5341 14.6789 13.5712 14.7465 13.5571L15.5353 13.3914C15.626 13.3723 15.6847 13.2942 15.6698 13.2124C15.6688 13.2069 15.6674 13.2015 15.6657 13.1962C15.6428 13.1278 15.5618 13.0888 15.4848 13.1091ZM14.4462 15.0403L15.1671 15.3875C15.2377 15.4215 15.264 15.5 15.2257 15.5628C15.2227 15.5676 15.2194 15.5723 15.2158 15.5768C15.1612 15.644 15.0576 15.6623 14.9783 15.6188L14.2887 15.2402C14.2296 15.2077 14.2113 15.1389 14.2478 15.0864C14.2958 15.0255 14.3793 15.0081 14.4462 15.0403ZM13.1301 16.7989L12.8965 16.1003C12.8748 16.0354 12.802 15.9953 12.7196 16.0082C12.652 16.0224 12.6102 16.0825 12.6262 16.1426L12.8126 16.8437C12.834 16.9244 12.9219 16.9766 13.0139 16.9633C13.0201 16.9625 13.0261 16.9612 13.0321 16.9597C13.1091 16.9393 13.153 16.8673 13.1301 16.7989ZM10.9575 15.8757L10.5669 16.5165C10.5286 16.5793 10.4403 16.6026 10.3697 16.5686C10.3642 16.566 10.359 16.563 10.3539 16.5598C10.2783 16.5113 10.2577 16.4192 10.3067 16.3487L10.7326 15.7357C10.7691 15.6832 10.8466 15.667 10.9056 15.6994C10.9742 15.742 10.9937 15.8162 10.9575 15.8757ZM8.97909 14.7058L9.76505 14.4982C9.83801 14.4789 9.88319 14.4142 9.86865 14.3409C9.85269 14.2809 9.78499 14.2437 9.71744 14.2579L8.92865 14.4236C8.83793 14.4426 8.7792 14.5207 8.79409 14.6025C8.79508 14.608 8.79647 14.6134 8.79825 14.6187C8.82113 14.6872 8.90209 14.7261 8.97909 14.7058ZM10.0177 12.7747L9.29679 12.4275C9.22617 12.3934 9.19994 12.315 9.2382 12.2522C9.24117 12.2473 9.24448 12.2427 9.24812 12.2382C9.30266 12.171 9.40634 12.1526 9.48564 12.1962L10.1752 12.5748C10.2343 12.6072 10.2526 12.6761 10.2161 12.7286C10.1681 12.7895 10.0846 12.8069 10.0177 12.7747ZM14.2113 12.607C14.151 12.6376 14.13 12.7058 14.1683 12.7651C14.21 12.8217 14.2927 12.8417 14.3608 12.8116L15.095 12.487C15.1669 12.4552 15.1962 12.3776 15.1604 12.3136C15.1576 12.3087 15.1545 12.3039 15.151 12.2993C15.0992 12.2304 14.9963 12.2089 14.9153 12.25L14.2113 12.607ZM14.51 14.3168C14.5301 14.2507 14.5992 14.2157 14.6661 14.2319L15.4479 14.422C15.5378 14.4439 15.5935 14.5238 15.5754 14.605C15.5742 14.6105 15.5726 14.6158 15.5706 14.6211C15.545 14.6888 15.4626 14.7252 15.3864 14.7025L14.6091 14.4706C14.537 14.4491 14.4943 14.383 14.51 14.3168ZM13.695 15.6669C13.6606 15.6133 13.5839 15.5946 13.5171 15.6287C13.4534 15.6657 13.4309 15.7393 13.4648 15.7998L13.83 16.4524C13.8658 16.5163 13.9531 16.5423 14.025 16.5105C14.0306 16.5081 14.036 16.5053 14.0412 16.5022C14.1186 16.4561 14.1428 16.3646 14.0966 16.2927L13.695 15.6669ZM11.7715 15.9323C11.8458 15.9502 11.8852 16.0116 11.8669 16.0711L11.6531 16.7661C11.6285 16.846 11.5386 16.8955 11.4472 16.8794C11.4411 16.8783 11.4351 16.8769 11.4291 16.8751C11.353 16.8524 11.312 16.7791 11.3375 16.7114L11.5984 16.0205C11.6226 15.9563 11.697 15.9185 11.7715 15.9323ZM10.2526 15.208C10.3129 15.1774 10.3339 15.1092 10.2956 15.0499C10.2539 14.9932 10.1712 14.9732 10.1031 15.0034L9.36894 15.328C9.29703 15.3598 9.26773 15.4374 9.30351 15.5013C9.30628 15.5063 9.30941 15.5111 9.31287 15.5157C9.36474 15.5845 9.46763 15.6061 9.5486 15.565L10.2526 15.208ZM9.95393 13.4982C9.93384 13.5642 9.86473 13.5993 9.79778 13.583L9.01597 13.3929C8.92605 13.3711 8.87042 13.2912 8.88851 13.2099C8.88972 13.2045 8.89132 13.1991 8.8933 13.1939C8.91886 13.1262 9.00131 13.0897 9.07745 13.1124L9.85479 13.3443C9.92695 13.3658 9.96955 13.432 9.95393 13.4982ZM10.7689 12.1481C10.8033 12.2017 10.88 12.2203 10.9468 12.1863C11.0105 12.1493 11.033 12.0757 10.9991 12.0151L10.6339 11.3626C10.5981 11.2987 10.5108 11.2726 10.4389 11.3044C10.4333 11.3069 10.4279 11.3097 10.4227 11.3128C10.3453 11.3589 10.3211 11.4503 10.3673 11.5223L10.7689 12.1481Z" clip-rule="evenodd"/></g></g></g></g></g></g><defs><filter id="filter0_dd_91_25863" width="42" height="30" x="0" y="0" color-interpolation-filters="sRGB" filterUnits="userSpaceOnUse"><feFlood flood-opacity="0" result="BackgroundImageFix"/><feColorMatrix in="SourceAlpha" result="hardAlpha" values="0 0 0 0 0 0 0 0 0 0 0 0 0 0 0 0 0 0 127 0"/><feOffset dy="1"/><feGaussianBlur stdDeviation="1"/><feColorMatrix values="0 0 0 0 0.0627451 0 0 0 0 0.0941176 0 0 0 0 0.156863 0 0 0 0.06 0"/><feBlend in2="BackgroundImageFix" result="effect1_dropShadow_91_25863"/><feColorMatrix in="SourceAlpha" result="hardAlpha" values="0 0 0 0 0 0 0 0 0 0 0 0 0 0 0 0 0 0 127 0"/><feOffset dy="1"/><feGaussianBlur stdDeviation="1.5"/><feColorMatrix values="0 0 0 0 0.0627451 0 0 0 0 0.0941176 0 0 0 0 0.156863 0 0 0 0.1 0"/><feBlend in2="effect1_dropShadow_91_25863" result="effect2_dropShadow_91_25863"/><feBlend in="SourceGraphic" in2="effect2_dropShadow_91_25863" result="shape"/></filter><clipPath id="clip0_91_25863"><rect width="36" height="24" x="3" y="2" fill="white" rx="2"/></clipPath></defs></svg>

<svg xmlns="http://www.w3.org/2000/svg" fill="none" aria-hidden="true" viewBox="0 0 42 30"><g filter="url(#a)"><g clip-path="url(#b)"><mask id="c" width="36" height="24" x="3" y="2" maskUnits="userSpaceOnUse" style="mask-type:alpha"><path fill="#fff" d="M3 2h36v24H3z"/></mask><g mask="url(#c)"><path fill="#BF2714" fill-rule="evenodd" d="M3 2v24h36V2H3Z" clip-rule="evenodd"/><mask id="d" width="36" height="24" x="3" y="2" maskUnits="userSpaceOnUse" style="mask-type:alpha"><path fill="#fff" fill-rule="evenodd" d="M3 2v24h36V2H3Z" clip-rule="evenodd"/></mask><g mask="url(#d)"><path fill="#3D58DB" fill-rule="evenodd" d="M3 0v14h36V0H3Z" clip-rule="evenodd"/></g><path fill="#F7FCFF" fill-rule="evenodd" d="M3 2v24l20.25-12L3 2Z" clip-rule="evenodd"/><mask id="e" width="21" height="24" x="3" y="2" maskUnits="userSpaceOnUse" style="mask-type:alpha"><path fill="#fff" fill-rule="evenodd" d="M3 2v24l20.25-12L3 2Z" clip-rule="evenodd"/></mask><g fill="#FECA00" fill-rule="evenodd" clip-rule="evenodd" mask="url(#e)"><path d="m18.306 12.92 1.435.492.854-.893.023 1.194 1.32.382-1.39.42.092 1.098-.916-.841-1.44.243.85-.968-.828-1.127Zm-13.5 6 1.32.518.97-.92-.094 1.222 1.437.355-1.507.446.208 1.072-1.049-.766-1.306.168.734-.942-.713-1.153Zm0-12 1.46.478.83-.88.046 1.182 1.297.395-1.366.406.067 1.112-.908-.806-1.447.208.874-.982-.853-1.113Zm7.331 9.613c1.553 0 2.812-1.12 2.812-2.5 0-1.381-1.259-2.5-2.812-2.5-1.554 0-2.813 1.119-2.813 2.5 0 1.38 1.26 2.5 2.813 2.5Z"/><path d="m11.804 10.24.151 1.606c.015.097.1.175.208.191.137.02.267-.062.29-.183l.2-1.6a.334.334 0 0 0 .005-.057c.005-.21-.184-.384-.421-.388-.021 0-.043 0-.064.003-.235.028-.4.22-.369.428Zm-.47.776.233.699c.022.065.095.105.177.092.068-.014.11-.075.094-.135l-.187-.7c-.021-.081-.109-.134-.201-.12a.159.159 0 0 0-.018.003c-.077.02-.121.093-.098.161Zm1.263.728c-.018.06.021.12.095.139.075.014.15-.024.174-.088l.26-.691c.026-.068-.015-.141-.091-.164a.158.158 0 0 0-.018-.004c-.092-.017-.182.033-.206.113l-.214.695Zm2.337-.702-1.258 1.234a.204.204 0 0 0-.005.266c.08.1.238.124.351.052l1.501-1.01a.409.409 0 0 0 .05-.036.352.352 0 0 0 .01-.54.466.466 0 0 0-.649.033Zm-.383 2.62 1.878-.13c.235-.027.45.12.481.329a.333.333 0 0 1 .004.056c-.004.21-.2.378-.437.375a.496.496 0 0 1-.063-.005l-1.872-.183c-.137-.02-.23-.136-.206-.257.018-.098.105-.173.215-.185Zm.975 2.658-1.458-1.129a.277.277 0 0 0-.3-.004c-.113.072-.14.211-.059.312l1.206 1.345c.013.015.026.03.041.043a.468.468 0 0 0 .649-.033c.144-.167.109-.406-.08-.534Zm-3.017-.35.11 1.684c.032.209-.133.4-.368.428a.463.463 0 0 1-.064.003c-.237-.004-.425-.177-.421-.388 0-.019.002-.037.005-.056l.24-1.68c.023-.122.153-.204.29-.183.109.016.193.093.208.191Zm-2.96.91 1.239-1.34a.204.204 0 0 0 .005-.267.272.272 0 0 0-.351-.052l-1.483 1.116a.428.428 0 0 0-.049.036.352.352 0 0 0-.01.54.466.466 0 0 0 .649-.033Zm.364-2.727-1.89.139c-.234.027-.45-.12-.48-.329a.34.34 0 0 1-.004-.056c.004-.21.2-.378.436-.375.021 0 .042.002.063.006l1.883.173c.138.02.23.136.207.258-.018.097-.106.171-.215.184Zm-1.119-2.63 1.602 1.1c.088.06.21.062.3.005.113-.072.14-.211.059-.312l-1.35-1.318a.468.468 0 0 0-.69-.01c-.144.167-.109.406.08.534Zm4.712.416.391-.64c.038-.063.127-.087.197-.053l.016.01c.076.048.096.14.047.21l-.426.613a.135.135 0 0 1-.173.037c-.068-.043-.088-.117-.052-.177Zm1.979 1.17-.786.208c-.073.019-.118.084-.104.157.016.06.084.097.151.083l.79-.166c.09-.019.149-.097.134-.179a.128.128 0 0 0-.004-.016c-.023-.068-.104-.107-.181-.087Zm-1.039 1.931.721.348c.07.034.097.112.059.175a.148.148 0 0 1-.01.014.192.192 0 0 1-.238.042l-.69-.379c-.058-.032-.077-.101-.04-.154a.163.163 0 0 1 .198-.046ZM13.13 16.8l-.234-.699c-.021-.065-.094-.105-.176-.092-.068.014-.11.075-.094.135l.187.7c.021.081.109.134.2.12a.158.158 0 0 0 .02-.003c.076-.02.12-.093.097-.161Zm-2.173-.923-.39.64c-.038.063-.127.087-.197.053a.152.152 0 0 1-.016-.01c-.076-.048-.096-.14-.047-.21l.426-.613a.135.135 0 0 1 .173-.037c.068.043.088.117.051.177Zm-1.978-1.17.786-.208c.073-.02.118-.084.104-.157-.016-.06-.084-.097-.152-.083l-.788.166c-.091.019-.15.097-.135.178l.004.017c.023.068.104.107.181.087Zm1.039-1.931-.721-.348c-.07-.034-.097-.112-.059-.175a.126.126 0 0 1 .01-.014.192.192 0 0 1 .238-.042l.69.379c.058.032.077.101.04.154a.163.163 0 0 1-.198.046Zm4.193-.168a.106.106 0 0 0-.043.158.161.161 0 0 0 .193.047l.734-.325c.072-.032.101-.11.065-.173a.13.13 0 0 0-.009-.015.191.191 0 0 0-.236-.049l-.704.357Zm.299 1.71a.129.129 0 0 1 .156-.085l.782.19c.09.022.146.102.127.183a.114.114 0 0 1-.004.016c-.026.068-.108.104-.185.082l-.777-.232c-.072-.022-.115-.088-.099-.154Zm-.815 1.35c-.034-.054-.111-.072-.178-.038-.064.037-.086.11-.052.17l.365.653c.036.064.123.09.195.058a.137.137 0 0 0 .016-.008c.078-.046.102-.137.056-.21l-.402-.625Zm-1.924.265c.075.018.114.08.096.14l-.214.694c-.024.08-.114.13-.206.113a.164.164 0 0 1-.018-.004c-.076-.023-.117-.096-.091-.164l.26-.69c.025-.065.099-.103.173-.089Zm-1.518-.724a.106.106 0 0 0 .043-.158.161.161 0 0 0-.193-.047l-.734.325c-.072.032-.101.11-.065.173l.009.015c.052.069.155.09.236.049l.704-.357Zm-.3-1.71a.129.129 0 0 1-.155.085l-.782-.19c-.09-.022-.146-.102-.127-.183a.117.117 0 0 1 .004-.016c.026-.068.108-.104.184-.082l.778.232c.072.022.115.088.099.154Zm.816-1.35c.034.054.111.072.178.038.064-.037.086-.11.052-.17l-.365-.653c-.036-.064-.123-.09-.195-.059a.155.155 0 0 0-.016.009c-.078.046-.102.137-.056.21l.402.625Z"/></g></g></g></g><defs><clipPath id="b"><rect width="36" height="24" x="3" y="2" fill="#fff" rx="2"/></clipPath><filter id="a" width="42" height="30" x="0" y="0" color-interpolation-filters="sRGB" filterUnits="userSpaceOnUse"><feFlood flood-opacity="0" result="BackgroundImageFix"/><feColorMatrix in="SourceAlpha" result="hardAlpha" values="0 0 0 0 0 0 0 0 0 0 0 0 0 0 0 0 0 0 127 0"/><feOffset dy="1"/><feGaussianBlur stdDeviation="1"/><feColorMatrix values="0 0 0 0 0.0627451 0 0 0 0 0.0941176 0 0 0 0 0.156863 0 0 0 0.06 0"/><feBlend in2="BackgroundImageFix" result="effect1_dropShadow_91_25863"/><feColorMatrix in="SourceAlpha" result="hardAlpha" values="0 0 0 0 0 0 0 0 0 0 0 0 0 0 0 0 0 0 127 0"/><feOffset dy="1"/><feGaussianBlur stdDeviation="1.5"/><feColorMatrix values="0 0 0 0 0.0627451 0 0 0 0 0.0941176 0 0 0 0 0.156863 0 0 0 0.1 0"/><feBlend in2="effect1_dropShadow_91_25863" result="effect2_dropShadow_91_25863"/><feBlend in="SourceGraphic" in2="effect2_dropShadow_91_25863" result="shape"/></filter></defs></svg>
